!!!COM: Robert Schumann
!!!CNT: Deutscher
!!!TXO: Deutsche 
!!!OTL: Die alten, bo2sen Lieder
!!!OPR: Dichterliebe
!!!OPS: Opus 48
!!!ONM: No. 16
!!!LYR: Heine
!!!ENC: Brian Bice
!!!YOR: Sa2mtliche Lieder, vol. 1, C.F. Peters
!!!ODT: 1840/
!!NB: Vocal melody and text only encoded.
**kern	**silbe
*clefG2	*
*k[f#c#g#d#]	*
*M4/4	*
=3	=3
2r	.
4r	.
8r	.
{8cc#	{Die
=4	=4
4.cc#	al-
8cc#	-ten,
4.g#	bo2-
8g#	-sen
=5	=5
4c#	Lie-
4c#}	-der,}
4r	.
8r	.
{8c#	{die
=6	=6
4.f#	Tra2u-
8f#	-me
4.g#	bo2s'
8g#	und
=7	=7
2c#}	arg,}
4r	.
8r	.
{8cc#	{die
=8	=8
4.cc#	lasst
8cc#	uns
4.g#	jetzt
8g#	be-
=9	=9
4c#	-gra-
4c#}	-ben,}
2r	.
=10	=10
{4f#	{holt
8f#	ein-
8f#	-en
4.g#	gro
8g#	-ssen
=11	=11
2c#}	Sarg.}
4r	.
8r	.
{8cc#	{Hin-
=12	=12
4.cc#	-ein
8cc#	leg'
4.d#	ich
8d#	gar
=13	=13
4b	man-
4b}	-ches,}
4r	.
{4g#	{doch
=14	=14
4.a#	sag'
8a#	ich
4f##	noch
4f##	nicht
=15	=15
2g#}	was;}
4r	.
8r	.
{8e	{der
=16	=16
4.e	Sarg
8g#	muss
4.g#	sein
8b	noch
=17	=17
(4.b	gro2-
8ee)	|
4ee}	-sser}
{(8g#	{wie's
8a)	|
=18	=18
4.b	Hei-
8b	-del-
4.b	-ber-
8b	-ger
=19	=19
2e}	Fass.}
4r	.
8r	.
{8b	{Und
=20	=20
4b	holt
8a	ei-
8a	-ne
4.g#	To-
8f#	-ten-
=21	=21
(4.e#	-bah-
8g#)	|
4g#}	-re}
8r	.
{8b	{und
=22	=22
4.b	Bret-
8a	-ter
4g#	fest
4f#	und
=23	=23
2e#}	dick;}
4r	.
8r	.
{8f#	{auch
=24	=24
4.f#	muss
8a	sie
4.a	sein
8cc#	noch
=25	=25
(4.cc#	la2n-
8ff#)	|
4ff#}	-ger,}
{(8a	{als
8b)	|
=26	=26
4.cc#	wie
8cc#	zu
4.cc#	Mainz
8cc#	die
=27	=27
2f#}	Bru2ck;}
4r	.
8r	.
{8cc#	{Und
=28	=28
4.cc#	holt
8b	mir
4a#	auch
4g#	zwo2lf
=29	=29
(4.f##	Rie-
8a#)	|
4a#}	-sen,}
8r	.
{8cc#	{die
=30	=30
4cc#	mu2s-
8b	-sen
8b	noch
4.a#	sta2r-
8g#	-ker
=31	=31
2f##}	sein,}
4r	.
{4g#	{als
=32	=32
4.g#	wie
8b#	der
4.b#	star-
8dd#	-ke
=33	=33
(4.dd#	Chri-
8gg#)	|
4gg#}	-stoph,}
{(8b#	{im
8cc#)	|
=34	=34
4.dd#	Dom
8dd#	zu
4dd#	Co2ln
4dd#	am
=35	=35
2.gg#}	Rhein.}
{4gg#	{Die
=36	=36
4cc#	sol-
8cc#	-len
8cc#	den
4g#	Sarg
4g#	fort-
=37	=37
4c#	-tra-
4c#}	-gen,}
4r	.
{4c#	{und
=38	=38
4an	sen-
8a	-ken
8a	ins
4.g#	Meer
8g#	hin-
=39	=39
2.gn;}	-ab;}
8r	.
{8gn	{denn
=40	=40
4.f#	sol-
8f#	-chem
4.dd#	gro-
8dd#	-ssen
=41	=41
4e	Sar-
4e}	-ge}
4r	.
{4cc#	{ge-
=42	=42
4.d#	-bu2hrt
8d#	ein
4.g#	gro-
8g#	-sses
=43	=43
2c#}	Grab.}
2r	.
=44	=44
{4c#	{Wisst
8c#	ihr,
8c#	war-
4.dn	-um
8dn	der
=45	=45
4c#	Sarg
4c#}	wohl}
4r	.
8r	.
{8e#	{so
=46	=46
4.c#	gross
8c#	und
4.g#	schwer
8g#	mag
=47	=47
(2.c#	sein?
cc#q)}	|}
{4cc#	{Ich
=48	=48
4.cc#	senk't
8cc#	auch
4b	mei-
4cc#	-ne
=49	=49
2ee	Lie-
4ddn}	-be}
{4cc#	{und
=50	=50
4.b#	mei-
8b#	-nen
4.cc#	Schmerz
8cc#	hin-
=51	=51
2a}	-ein.}
2r	.
*-	*-
